modules/hawcons-stroke/icons/mail-error.svg

<?xml version="1.0" encoding="UTF-8" standalone="no"?>
<svg width="32px" height="32px" viewBox="0 0 32 32" version="1.1" xmlns="http://www.w3.org/2000/svg" xmlns:xlink="http://www.w3.org/1999/xlink" xmlns:sketch="http://www.bohemiancoding.com/sketch/ns">
    <!-- Generator: Sketch 3.0.3 (7891) - http://www.bohemiancoding.com/sketch -->
    <title>icon 8 mail error</title>
    <desc>Created with Sketch.</desc>
    <defs></defs>
    <g id="Page-1" stroke="none" stroke-width="1" fill="none" fill-rule="evenodd" sketch:type="MSPage">
        <g id="icon-8-mail-error" sketch:type="MSArtboardGroup" fill="#929292">
            <path d="M26,17.5384615 L26,9.00684547 C26,8.71711185 25.8808404,8.45596162 25.6868931,8.27226685 L25.6868931,8.27226685 L17.95,15 L22.2767624,18.7624021 L24.5,15 L26,17.5384615 L26,17.5384615 L26,17.5384615 Z M21.768089,19.6232341 L17.2018297,15.6505829 L17.2018297,15.6505829 L14.5,18 L11.7981703,15.6505829 L4.5,22 L20.3636364,22 L21.768089,19.6232341 L21.768089,19.6232341 L21.768089,19.6232341 Z M19.7727273,23 L4.00359486,23 C2.88976324,23 2,22.1072288 2,21.0059397 L2,8.99406028 C2,7.89451376 2.89703997,7 4.00359486,7 L24.9964051,7 C26.1102368,7 27,7.8927712 27,8.99406028 L27,19.2307692 L31,26 L18,26 L19.7727273,23 L19.7727273,23 Z M3.31500722,8.27391933 C3.12106043,8.45739405 3,8.71770487 3,9.00684547 L3,20.9931545 C3,21.2828882 3.11915965,21.5440384 3.31310687,21.7277332 L3.31310687,21.7277332 L11.05,15 L3.31500722,8.27391933 L3.31500722,8.27391933 L3.31500722,8.27391933 Z M14.5,16.7000122 L24.5,8 L4.5,8 L14.5,16.7000122 L14.5,16.7000122 Z M24.5,17 L29.25,25 L19.75,25 L24.5,17 L24.5,17 Z M24,19 L24,22 L25,22 L25,19 L24,19 L24,19 Z M24,23 L24,24 L25,24 L25,23 L24,23 L24,23 Z" id="mail-error" sketch:type="MSShapeGroup"></path>
        </g>
    </g>
</svg>

<svg width="32" height="32" viewBox="0 0 32 32" xmlns="http://www.w3.org/2000/svg"><path d="M26 17.538V9.007c0-.29-.12-.551-.313-.735L17.95 15l4.327 3.762L24.5 15l1.5 2.538zm-4.232 2.085l-4.566-3.972L14.5 18l-2.702-2.35L4.5 22h15.864l1.404-2.377zM19.773 23H4.003A1.994 1.994 0 0 1 2 21.006V8.994A2 2 0 0 1 4.004 7h20.992C26.11 7 27 7.893 27 8.994v10.237L31 26H18l1.773-3zM3.315 8.274A1.006 1.006 0 0 0 3 9.007v11.986c0 .29.12.551.313.735L11.05 15 3.315 8.274zM14.5 16.7l10-8.7h-20l10 8.7zm10 .3l4.75 8h-9.5l4.75-8zm-.5 2v3h1v-3h-1zm0 4v1h1v-1h-1z" fill="#929292" fill-rule="evenodd"/></svg>
